icons/glyphs/glyph-options.svg

<?xml version="1.0" encoding="UTF-8" standalone="no"?><svg height="22" viewBox="0 0 22 22" width="22" xmlns="http://www.w3.org/2000/svg"><sodipodi:namedview/><metadata><rdf:RDF><cc:Work><dc:format>image/svg+xml</dc:format><dc:type/><dc:title/></cc:Work></rdf:RDF></metadata><path d="m11-.00000013a2.4552625 2.4552625 0 0 0 -2.455643 2.45566643 2.4552625 2.4552625 0 0 0 2.455643 2.4545756 2.4552625 2.4552625 0 0 0 2.455643-2.4545756 2.4552625 2.4552625 0 0 0 -2.455643-2.45566643zm0 8.54489153a2.4552625 2.4552625 0 0 0 -2.455643 2.4556406 2.4552625 2.4552625 0 0 0 2.455643 2.454576 2.4552625 2.4552625 0 0 0 2.455643-2.454576 2.4552625 2.4552625 0 0 0 -2.455643-2.4556406zm0 8.5448926a2.4552625 2.4552625 0 0 0 -2.455643 2.455614 2.4552625 2.4552625 0 0 0 2.455643 2.454602 2.4552625 2.4552625 0 0 0 2.455643-2.454602 2.4552625 2.4552625 0 0 0 -2.455643-2.455614z" fill="#d0d0d0" stroke-width="1.086681"/></svg>

<?xml version="1.0" encoding="UTF-8" standalone="no"?>
<!-- Created with Inkscape (http://www.inkscape.org/) -->

<svg
   xmlns:dc="http://purl.org/dc/elements/1.1/"
   xmlns:cc="http://creativecommons.org/ns#"
   xmlns:rdf="http://www.w3.org/1999/02/22-rdf-syntax-ns#"
   xmlns:svg="http://www.w3.org/2000/svg"
   xmlns="http://www.w3.org/2000/svg"
   xmlns:sodipodi="http://sodipodi.sourceforge.net/DTD/sodipodi-0.dtd"
   xmlns:inkscape="http://www.inkscape.org/namespaces/inkscape"
   width="22"
   height="22"
   viewBox="0 0 22 22"
   version="1.1"
   id="svg8"
   inkscape:version="0.92+devel 15640 custom"
   sodipodi:docname="glyph-options.svg">
  <defs
     id="defs2" />
  <sodipodi:namedview
     id="base"
     pagecolor="#002266"
     bordercolor="#ffffff"
     borderopacity="0.46666667"
     inkscape:pageopacity="0"
     inkscape:pageshadow="2"
     inkscape:zoom="13.081476"
     inkscape:cx="16.621911"
     inkscape:cy="12.794693"
     inkscape:document-units="px"
     inkscape:current-layer="svg8"
     inkscape:document-rotation="0"
     showgrid="false"
     inkscape:showpageshadow="false"
     borderlayer="true"
     units="px"
     fit-margin-top="0"
     fit-margin-left="0"
     fit-margin-right="0"
     fit-margin-bottom="0"
     inkscape:window-width="1920"
     inkscape:window-height="1051"
     inkscape:window-x="0"
     inkscape:window-y="0"
     inkscape:window-maximized="1" />
  <metadata
     id="metadata5">
    <rdf:RDF>
      <cc:Work
         rdf:about="">
        <dc:format>image/svg+xml</dc:format>
        <dc:type
           rdf:resource="http://purl.org/dc/dcmitype/StillImage" />
        <dc:title></dc:title>
      </cc:Work>
    </rdf:RDF>
  </metadata>
  <path
     style="fill:#d0d0d0;stroke-width:1.08668053"
     d="M 11,-1.3000431e-7 A 2.4552625,2.4552625 0 0 0 8.544357,2.4556663 2.4552625,2.4552625 0 0 0 11,4.9102419 2.4552625,2.4552625 0 0 0 13.455643,2.4556663 2.4552625,2.4552625 0 0 0 11,-1.3000431e-7 Z M 11,8.5448914 A 2.4552625,2.4552625 0 0 0 8.544357,11.000532 2.4552625,2.4552625 0 0 0 11,13.455108 2.4552625,2.4552625 0 0 0 13.455643,11.000532 2.4552625,2.4552625 0 0 0 11,8.5448914 Z m 0,8.5448926 A 2.4552625,2.4552625 0 0 0 8.544357,19.545398 2.4552625,2.4552625 0 0 0 11,22 2.4552625,2.4552625 0 0 0 13.455643,19.545398 2.4552625,2.4552625 0 0 0 11,17.089784 Z"
     id="circle4269"
     inkscape:connector-curvature="0"
     inkscape:label="glyph" />
</svg>
